!!!SOCIAL_FUNCTION:	songs of the sun dance
!!!PDT:	1918

Specific Region: Dakotas, Minnesota, Montana, Nebraska
!!!REG: Dakotas and Montana
!!!LING_GROUP: Siouan
!!!LANG: Tone
!!!OTL@ENG: Wakangtangka Hears Me
!!!ONM: No. 26
**kern
*Imale
*clefF4
*k[b-]
*M2/4
*MM88
8e
=1
4e
12e
12e
12d
=2
4d
12A
12A
12A
=3
4.A
8A
=4
4e
12e
12e
12d
=5
4d
12A
12A
12A
=6
4.A
8A
=7
4B-
12B-
12B-
12A
=8||
*M3/4
4A
12F
12F
12F
8E
8E
=9
4.D
8D
8E
8D
=10||
*M2/4
4AA
8AA
8AA
=11
(2AA
=12
4AA)
16A
8.A
=13
(32e
16.d)
(32e
16.d)
[16e
8.e]
=14
12e
(12e
12d)
8.d
16A
=15
16A
8.A
8A
8A
=16
16d
8.A
8B-
8B-
=17
16d
8.A
8A
8A
=18
12F
8F
24F
8E
8E
=19||
*M3/4
4.D
8D
8E
8D
=20||
*M2/4
4AA
8AA
8AA
=21
2AA
==
*-
!!!CNT: Native American -- Sioux
!!!MRD: 1911/07//-1914///
!!!OCL: Frances Densmore
!!!YOR1: Teton Sioux Music, Bulletin 61,
!!!YOR2: Bureau of American Ethnology, Smithsonian Institution
!!!PPR: Government Printing Office
!!!PPP: Washington, D.C.
!!!PDT: 1918///
!!!ENC: Craig Stuart Sapp
!!!END: 2002/03/25/
!!!EEV: 2002/03/31/
!!!AGN: Ceremonial Song/Song of the Sun Dance
!!!MPN@@SIO: Ishn'la-wicha'
!!!MPN@ENG: Lone Man
!!!TXO: Teton Sioux
!!!MLC: Standing Rock Reservation, South Dakota, United States of America
!!!ARL: 45.9/-100.7#
!!!catalog: Catalogue No. 483
!!!PPG: 140
!!!EFL: 26/245
!!!VTS: 3878258891
